docs/.gitbook/assets/icon-snippets-16@light.svg

<svg width="32" height="32" viewBox="0 0 16 16" fill="none" xmlns="http://www.w3.org/2000/svg">
<rect x="0" y="0" width="16" height="16" fill="#fff"/>
<path fill-rule="evenodd" clip-rule="evenodd" d="M2 2.75C2 2.33579 2.33579 2 2.75 2H8.25C8.66421 2 9 2.33579 9 2.75C9 3.16421 8.66421 3.5 8.25 3.5H2.75C2.33579 3.5 2 3.16421 2 2.75ZM11 2.75C11 2.33579 11.3358 2 11.75 2H13.25C13.6642 2 14 2.33579 14 2.75C14 3.16421 13.6642 3.5 13.25 3.5H11.75C11.3358 3.5 11 3.16421 11 2.75ZM2 6.25C2 5.83579 2.33579 5.5 2.75 5.5H4.25C4.66421 5.5 5 5.83579 5 6.25C5 6.66421 4.66421 7 4.25 7H2.75C2.33579 7 2 6.66421 2 6.25ZM7 6.25C7 5.83579 7.33579 5.5 7.75 5.5H13.25C13.6642 5.5 14 5.83579 14 6.25C14 6.66421 13.6642 7 13.25 7H7.75C7.33579 7 7 6.66421 7 6.25ZM2 9.75C2 9.33579 2.33579 9 2.75 9H7.25C7.66421 9 8 9.33579 8 9.75C8 10.1642 7.66421 10.5 7.25 10.5H2.75C2.33579 10.5 2 10.1642 2 9.75ZM10 9.75C10 9.33579 10.3358 9 10.75 9H13.25C13.6642 9 14 9.33579 14 9.75C14 10.1642 13.6642 10.5 13.25 10.5H10.75C10.3358 10.5 10 10.1642 10 9.75ZM2 13.25C2 12.8358 2.33579 12.5 2.75 12.5H5.25C5.66421 12.5 6 12.8358 6 13.25C6 13.6642 5.66421 14 5.25 14H2.75C2.33579 14 2 13.6642 2 13.25ZM8 13.25C8 12.8358 8.33579 12.5 8.75 12.5H13.25C13.6642 12.5 14 12.8358 14 13.25C14 13.6642 13.6642 14 13.25 14H8.75C8.33579 14 8 13.6642 8 13.25Z" fill="#000"/>
</svg>

<svg xmlns="http://www.w3.org/2000/svg" width="32" height="32" fill="none" viewBox="0 0 16 16"><path fill="#fff" d="M0 0h16v16H0z"/><path fill="#000" fill-rule="evenodd" d="M2 2.75A.75.75 0 0 1 2.75 2h5.5a.75.75 0 0 1 0 1.5h-5.5A.75.75 0 0 1 2 2.75m9 0a.75.75 0 0 1 .75-.75h1.5a.75.75 0 0 1 0 1.5h-1.5a.75.75 0 0 1-.75-.75m-9 3.5a.75.75 0 0 1 .75-.75h1.5a.75.75 0 0 1 0 1.5h-1.5A.75.75 0 0 1 2 6.25m5 0a.75.75 0 0 1 .75-.75h5.5a.75.75 0 0 1 0 1.5h-5.5A.75.75 0 0 1 7 6.25m-5 3.5A.75.75 0 0 1 2.75 9h4.5a.75.75 0 0 1 0 1.5h-4.5A.75.75 0 0 1 2 9.75m8 0a.75.75 0 0 1 .75-.75h2.5a.75.75 0 0 1 0 1.5h-2.5a.75.75 0 0 1-.75-.75m-8 3.5a.75.75 0 0 1 .75-.75h2.5a.75.75 0 0 1 0 1.5h-2.5a.75.75 0 0 1-.75-.75m6 0a.75.75 0 0 1 .75-.75h4.5a.75.75 0 0 1 0 1.5h-4.5a.75.75 0 0 1-.75-.75" clip-rule="evenodd"/></svg>
